!!!OTL: Die Brombeerpflueckerin
!!!OTL-incipit:Wenn alle Waesserlein fliessen,
!!!ARE: Europa, Mitteleuropa, Deutschland
!!!YOR: 7, S. 106
!!    ????
!!!SCT: Q1147N
!!!TXL: @@DE
!!!YEM: Copyright 1995, estate of Helmut Schaffrath.
**kern	**text
*ICvox	*
*M4/4	*
*met(c)	*
*k[f#]	*
*G:	*
!LO:TX:a:t=Pfeufer	!
{4d	1._Wenn
=1	=1
4g	al-
4g	-le
8gL	Wäs-
8f#J	-ser-
4e	-lein
=2	=2
(4d	flie-
4f#)	.
4a}	-ßen,
{4cc	so
=3	=3
4b	muß
4b	man
2a	trin-
=4	=4
2g	-ken.
4r}	.
{8gL	Wenn
8aJ	man
=5	=5
4b	sei-
4b	-nem
4b	Schatz
4b	nicht
=6	=6
4a	ru-
4dd	-fen
2cc}	kann,
=7	=7
{2a	ja
2a	ja
=8	=8
4b	ru-
4cc	-fen
4dd}	kann,
{4cc	so
=9	=9
4b	muß
4b	man
2a	win-
=10	=10
2g	-ken.
4r}	.
{8gL	Wenn
8aJ	man
=11	=11
4b	sei-
4b	-nem
4b	Schatz
4b	nicht
=12	=12
4a	ru-
4dd	-fen
2cc}	kann,
=13	=13
{2a	ja
2a	ja
=14	=14
4b	ru-
4cc	-fen
4dd}	kann,
{4cc	so
=15	=15
4b	muß
4b	man
2a	win-
=16	=16
2g	-ken.
4r}	.
==	==
!!!AGN: ???
!! Melodievergleich zu Q0147M, anderes Lied.
!!    Vierte und siebte Zeile refrainartig.
!!!ONB: ESAC (Essen Associative Code) Database: BALLADE
!!!AMT: simple quadruple
!!!AIN: vox
!!!EED: Helmut Schaffrath
!!!EEV: 1.0
!!!source: Deutsche Volkslieder mit ihren Melodien Balladen. Herausgegeben vom Deutschen Volksliedarchiv. Siebenterer Band. Freiburg/Breisgau 1982.
!!!page: 106
!!!ENC: Anna Maria Matuszewska
!!!EEV: 2025/03/07
*-	*-
